X:1
T:Title
L:1/8
Q:1/4=130
M:4/4
K:D
V:1 treble nm="Church Organ, Staff"
V:1
 D2 F4 A2- | A2 d6 | c2 c2 B2 B2 | B2 B4 A2 | A2 A6 | B2 A6 | B2 c2 c2 c2 | d2 c6 | A2 A4 A2- | %9
w: By~Rev.~R.~F.~Smith * *|||||||||
 A2 d6 | d2 f2- f/ z/ f f2 | e2 e4 d2 | A2 d4 B2- | B2 A2 F2 D2 | E2 F4 E2- | E2 D6 |] %16
w: |||||||

